X:7
T:Idre Schottis #1
R:schottis
Z:from Ramblewood notes
M:2/4
L:1/16
K:D
P:A
|: "D"D2 FA d2 d2 | "D"D2 FA d2 cd | "A7"ef ec A2 Bc \
| [1 "D"d2 cB "A"AG FE :| [2 "D"d2 dc d4 ||
!
P:B
|: "D"a2 fa "A"g2 eg | "D"f2 d2 "A"e4 | "Dm"=f2 ag f2 ed \
| [1 "A7"cd ed c2 A2 :| [2 "A7"cd ec "D"d4 ||
